X:3109
T:Clock in the Steeple
M:4/4
L:1/8
K:A
g|a2 ec defg|afec dBBg|a2 ec defg|afec BAAg|!
a2 ec defg|afec dBBg|a2 ec defg|afec BAA:|!
|:B|cBcA d2 dB|efec dBBd|c2 cA defg|afec BAAB|!
cBcA d2 dB|efec dBBc|Aceg agaf|edcB cAA:|!


